shader atan2
  (
    float Y = 0,
    float X = 1,
    output float Atan2 = 0
  )
  /* does a full-four-quadrant arctangent, unlike the built-in Cycles atan Math function. */
  {
    Atan2 = atan2(Y, X);
  } /*atan2*/
