shader scale_coords
  (
    point In = P,
    float Scale = 1.0,
    point Origin = point(0, 0, 0),
    output point Out = P
  )
  /* simpler alternative to Blender’s Vector-Mapping node
    that only does uniform scaling. */
  {
    Out = (In - Origin) * Scale + Origin;
  } /*scale_coords*/
